X: 53
T: Spider and Fly. LW.053
T: Vandals of Hammerwich,aka. LW.053, The
M: 2/4
Q: 1/4=120
L: 1/8
B: Lionel Winship MS, 1833, Wark, Northumberland
Z: Village Music Project 2017 Anne Wride
S: Chris Partington, tradtunes 2017-8-18
K: G
B/c/ |\
d2 dd | d2 dd | dgfe | d3d |\
dccc | cBBd | dcAF | G3:|
|: G |\
GBBB | GBBB | d3c/A/ | B3 B |\
GBBB | GBBd | dcAF | G3f |
gAAA | A2 Bc | eddd | d3f |\
gAAA | ABcF | AGGG | G3:|
